packages/IcoMoon/src/EarthIcon/index.svg

<svg version="1.1" xmlns="http://www.w3.org/2000/svg" width="16" height="16" viewBox="0 0 16 16">
<path d="M8 0c-4.418 0-8 3.582-8 8s3.582 8 8 8 8-3.582 8-8-3.582-8-8-8zM8 15c-0.984 0-1.92-0.203-2.769-0.57l3.643-4.098c0.081-0.092 0.126-0.21 0.126-0.332v-1.5c0-0.276-0.224-0.5-0.5-0.5-1.765 0-3.628-1.835-3.646-1.854-0.094-0.094-0.221-0.146-0.354-0.146h-2c-0.276 0-0.5 0.224-0.5 0.5v3c0 0.189 0.107 0.363 0.276 0.447l1.724 0.862v2.936c-1.813-1.265-3-3.366-3-5.745 0-1.074 0.242-2.091 0.674-3h1.826c0.133 0 0.26-0.053 0.354-0.146l2-2c0.094-0.094 0.146-0.221 0.146-0.354v-1.21c0.634-0.189 1.305-0.29 2-0.29 1.1 0 2.141 0.254 3.067 0.706-0.065 0.055-0.128 0.112-0.188 0.172-0.567 0.567-0.879 1.32-0.879 2.121s0.312 1.555 0.879 2.121c0.569 0.569 1.332 0.879 2.119 0.879 0.049 0 0.099-0.001 0.149-0.004 0.216 0.809 0.605 2.917-0.131 5.818-0.007 0.027-0.011 0.055-0.013 0.082-1.271 1.298-3.042 2.104-5.002 2.104z"></path>
</svg>

<svg xmlns="http://www.w3.org/2000/svg" viewBox="0 0 16 16">
  <path d="M8 0a8 8 0 100 16A8 8 0 008 0zm0 15a6.96 6.96 0 01-2.769-.57l3.643-4.098A.503.503 0 009 10V8.5a.5.5 0 00-.5-.5C6.735 8 4.872 6.165 4.854 6.146A.5.5 0 004.5 6h-2a.5.5 0 00-.5.5v3a.5.5 0 00.276.447L4 10.809v2.936A6.992 6.992 0 011 8a6.97 6.97 0 01.674-3H3.5c.133 0 .26-.053.354-.146l2-2A.5.5 0 006 2.5V1.29A6.989 6.989 0 018 1c1.1 0 2.141.254 3.067.706A2.98 2.98 0 0010 3.999c0 .801.312 1.555.879 2.121a2.994 2.994 0 002.268.875c.216.809.605 2.917-.131 5.818a.466.466 0 00-.013.082 6.979 6.979 0 01-5.002 2.104z"/>
</svg>
